packages/core/src/svgs/tokens/mono/NSBT.svg

<svg width="24" height="24" viewBox="0 0 24 24" fill="none" xmlns="http://www.w3.org/2000/svg">
<path fill-rule="evenodd" clip-rule="evenodd" d="M22 12L12 2L2 12L12 22L22 12ZM9.22222 16.4443H8.11112V12.5554H5.88889V11.4444H8.11112V7.55547H9.22222L14.7778 14.5332V12.5554V11.4444V7.55547H15.8889V11.4444H18.1111V12.5554H15.8889V16.4443H14.7778L9.22222 9.5055V11.4444V12.5554V16.4443Z" fill="white"/>
<path d="M9.22222 16.444H8.11112V12.5551H5.88889V11.444H8.11112V10.4507C7.75951 10.3759 7.42657 10.3333 7.11668 10.3333C4.61667 10.3333 2 11.9999 2 11.9999L12 21.9999L21.9723 12.0332C21.6389 12.2221 19.7 13.111 16.8111 13.111C16.5102 13.111 16.2022 13.0863 15.8889 13.0417V16.444H14.7778L10.6582 11.2986C10.164 11.1012 9.68298 10.9163 9.22222 10.7623V16.444Z" fill="white"/>
<path d="M12.9231 12.2036L14.7778 14.5331V12.8122C14.166 12.6514 13.5434 12.4379 12.9231 12.2036Z" fill="white"/>
</svg>

<svg xmlns="http://www.w3.org/2000/svg" width="24" height="24" fill="none" viewBox="0 0 24 24">
    <path fill="#fff" fill-rule="evenodd" d="M22 12 12 2 2 12l10 10zM9.222 16.444h-1.11v-3.889H5.888v-1.11H8.11v-3.89h1.111l5.556 6.978V7.555h1.11v3.89h2.223v1.11h-2.22v3.89h-1.111l-5.556-6.94v6.94" clip-rule="evenodd"/>
    <path fill="#fff" d="M9.222 16.444h-1.11v-3.889H5.888v-1.111H8.11v-.993a5 5 0 0 0-.994-.118C4.617 10.333 2 12 2 12l10 10 9.972-9.967c-.333.19-2.272 1.078-5.16 1.078q-.453-.001-.923-.07v3.403h-1.111l-4.12-5.145a27 27 0 0 0-1.436-.537z"/>
    <path fill="#fff" d="m12.923 12.204 1.855 2.33v-1.722a19 19 0 0 1-1.855-.608"/>
</svg>
